!!!!SEGMENT: pl-kk--kk-i-6--028-001_anonim--tempore-paschali-kyrie.krn
!!!cenid: 16xx:999
!!!COM: Anonim
!!!COM-rismid: pe30004985
!!!CDT:
!!!CNT:
!!!OTL: Tempore Paschali – Kyrie
!!!PDT:
!!!AGN: Sacred; Easter
!!!SMS-siglum: PL-Kk
!!!SMS-shelfmark: Kk.I.6
!!!SMS-shelfwork: 028-001 M
!!!SMS-variant:
!!!SMS-altvar:
!!!NIFC-rismid: 1001136067
!!!URL-scan: http://repozytorium.nifc.pl/skany/pl-kk-nut--i-6
!!!ONB-nifc: UWAGA: C (skan 0038-0042, s. 72-81), T (skan 0141-0148, s. 87-100), B (skan 0251-0258, s. 85-98) Części Mszy: 1. Kyrie, 2. Et in terra, 3. Patrem, 4. Sanctus, 5. Agnus Dei
**kern	**text	**kern	**text	**kern	**text
*part3	*part3	*part2	*part2	*part1	*part1
*staff3	*staff3	*staff2	*staff2	*staff1	*staff1
*I"[Baſsus.]	*	*I"[Tenor.]	*	*I"[Cantus.]	*
*I'B	*	*I'T	*	*I'S	*
*clefF4	*	*clefC4	*	*clefC4	*
*k[]	*	*k[]	*	*k[]	*
*M2/1	*	*M2/1	*	*M2/1	*
*met(C|)	*	*met(C|)	*	*met(C|)	*
=1-	=1-	=1-	=1-	=1-	=1-
!LO:TX:t:a=Tempore Paschali.	!	!LO:TX:t:a=Tempore Paschali.	!	!	!
!LO:TX:t=P:problem:brak kresek taktowych:global	!	!LO:TX:t=P:problem:brak kresek taktowych:global	!	!	!
!LO:TX:t=P:problem:4/middle or right:global	!	!LO:TX:t=P:problem:2\, 4\, 8\middle:global	!	!LO:TX:t=P:problem:brak kresek taktowych:global	!
!LO:TX:t=P:problem:2\, 4\middle:global	!	!LO:TX:t=P:problem:4/middle or right:global	!	!LO:TX:t:a=Tempore Paschali.	!
*	*	*	*	*lig	*
0r	.	00r	.	1G/	Ky-
.	.	.	.	1A\	.
*	*	*	*	*Xlig	*
=2-	=2-	=2-	=2-	=2-	=2-
*lig	*	*	*	*	*
1C/	Ky-	.	.	1c\	.
1D\	.	.	.	1A\	-ri-
*Xlig	*	*	*	*	*
=3-	=3-	=3-	=3-	=3-	=3-
*	*	*	*	*lig	*
1.F\	.	1r	.	1A\	-e
.	.	1G/	Ky-	1c\	.
2E\	-ri-	.	.	.	.
*	*	*	*	*Xlig	*
=4-	=4-	=4-	=4-	=4-	=4-
2F\	-e	2A/	-ri-	0c\	.
2.F\	.	2c\	.	.	.
.	.	1A\	-e	.	.
4G\	.	.	.	.	.
2A\	e-	.	.	.	.
=5-	=5-	=5-	=5-	=5-	=5-
2.G\	.	2d\	.	1B\	.
.	.	1d\	e-	.	.
4F\	.	.	.	.	.
1E\	-ley-	.	.	1G/	e-
!	!	!LO:TX:t=P:problem:# below	!	!	!
.	.	2c#X\	-ley-	.	.
=6-	=6-	=6-	=6-	=6-	=6-
!LO:SIC:v:custos:GG	!	!	!	!	!
*	*	*	*	*lig	*
1D\	-Son	2d\	-ſon	1A\	.
*	*	*	*ij	*	*
.	.	2D/	Ky-	.	.
!LO:LB:g=original	!	!	!	!	!
2r	.	2E/	-ri-	1G/	.
*	*ij	*	*	*	*
2GG/	Ky-	2G/	.	.	.
*	*	*	*	*Xlig	*
=7-	=7-	=7-	=7-	=7-	=7-
*	*	*	*	*lig	*
2AA/	-ri-	2.c\	-e	1E/	.
2C/	.	.	.	.	.
.	.	4B\	.	.	.
2FF/	-e	1A\	.	1F/	.
2AA/	e-	.	.	.	.
*	*	*	*	*Xlig	*
=8-	=8-	=8-	=8-	=8-	=8-
0GG/	-ley-	1.d\	e-	1G/	.
.	.	.	.	1G/	-ley-
.	.	2d\	-ley-	.	.
=9-	=9-	=9-	=9-	=9-	=9-
!LO:TX:t=P:problem:fermata również u dołu:global	!	!LO:TX:t=P:problem:fermata również u dołu:global	!	!LO:TX:t=P:problem:fermata również u dołu:global	!
0C/;	-Son	0c\;	-ſon	0E/;	-Son.
*	*Xij	*	*Xij	*	*
!LO:LB:g=original	!	!LO:LB:g=original	!	!LO:LB:g=original	!
=10||-	=10||-	=10||-	=10||-	=10||-	=10||-
*M2/1	*	*M2/1	*	*M2/1	*
*met(C|)	*	*met(C|)	*	*met(C|)	*
*	*	*	*	*lig	*
00r	.	0r	.	1c\	C
.	.	.	.	1d\	.
*	*	*	*	*Xlig	*
=11-	=11-	=11-	=11-	=11-	=11-
*	*	*lig	*	*lig	*
.	.	1F/	Chri-	1c\	.
.	.	1G/	.	1B\	.
*	*	*Xlig	*	*Xlig	*
=12-	=12-	=12-	=12-	=12-	=12-
*	*	*	*	*lig	*
0r	.	1F/	-ſte	1A\	.
.	.	2E/	.	1c\	.
.	.	4C/	.	.	.
.	.	4D/	.	.	.
*	*	*	*	*Xlig	*
=13-	=13-	=13-	=13-	=13-	=13-
*lig	*	*	*	*lig	*
1C/	CHri-	4E/	.	1c\	.
.	.	4F/	.	.	.
.	.	4G/	.	.	.
.	.	4E/	.	.	.
1D\	.	4F/	.	1A\	.
.	.	4G/	.	.	.
.	.	4A/	.	.	.
.	.	4F/	.	.	.
*Xlig	*	*	*	*Xlig	*
=14-	=14-	=14-	=14-	=14-	=14-
*	*	*	*	*lig	*
1C/	-ſte	2.G/	.	1c\	.
.	.	4A/	.	.	.
1BB/	.	4B\	.	1G/	.
.	.	4c\	.	.	.
.	.	4d\	.	.	.
.	.	4B\	.	.	.
!	!	!LO:SIC:v:custos:c	!	!	!
*	*	*	*	*Xlig	*
!	!	!LO:LB:g=original	!	!	!
=15-	=15-	=15-	=15-	=15-	=15-
*	*	*	*	*lig	*
2.AA/	.	2c\	.	1F/	.
.	.	2c\	.	.	.
4GG/	.	.	.	.	.
2FF/	.	2.f\	e-	1A\	.
2F\	.	.	.	.	.
.	.	4e\	-ley-	.	.
*	*	*	*	*Xlig	*
=16-	=16-	=16-	=16-	=16-	=16-
*	*	*	*	*lig	*
1G\	e-	1d\	-ſon	1B\	.
1A\	-ley-	2r	.	1c\	.
.	.	2c\	Chri-	.	.
*	*	*	*	*Xlig	*
=17-	=17-	=17-	=17-	=17-	=17-
*	*	*	*	*lig	*
2G\	-ſon	1d\	.	1B\	.
*	*ij	*	*	*	*
2GG/	CHri-	.	.	.	.
4AA/	.	1c\	-ſte	1A\	.
4BB/	.	.	.	.	.
4C/	.	.	.	.	.
!LO:SIC:v:custos:E	!	!	!	!	!
4D/	.	.	.	.	.
*	*	*	*	*Xlig	*
!LO:LB:g=original	!	!	!	!	!
=18-	=18-	=18-	=18-	=18-	=18-
2E\	-ſte	4B\	.	1G/	.
.	.	4A/	e-	.	.
2E\	e-	4B\	.	.	.
.	.	4c\	.	.	.
1D\	-ley-	2.d\	.	1A\	.
.	.	4d\	-ley-	.	.
=19-	=19-	=19-	=19-	=19-	=19-
0GG/;	-son	0B\;	-son.	0G/;	.
*	*Xij	*	*	*	*
!	!	!LO:LB:g=original	!	!LO:LB:g=original	!
=20||-	=20||-	=20||-	=20||-	=20||-	=20||-
*M2/1	*	*M2/1	*	*M2/1	*
*met(C|)	*	*met(C|)	*	*met(C|)	*
*	*	*	*	*lig	*
1r	.	1r	.	1G/	Ky-
2.G\	Ky-	2.G/	Ky-	1B\	.
4G\	-ri-	4G/	.	.	.
*	*	*	*	*Xlig	*
=21-	=21-	=21-	=21-	=21-	=21-
*	*	*	*	*lig	*
2F\	-e	4A/	-ri-	1c\	.
.	.	4B\	-e	.	.
2A\	e-	1c\	e-	.	.
1G\	-ley-	.	.	1d\	.
.	.	2B\	-ley-	.	.
*	*	*	*	*Xlig	*
=22-	=22-	=22-	=22-	=22-	=22-
1C/	-ſon	1c\	-ſon	1c\	-ri-
*	*	*	*ij	*	*
2.GG/	ky-	2.B\	Ky-	1d\	-e
!LO:SIC:v:custos:C	!	!	!	!	!
4GG/	-ri-	4B\	-ri-	.	.
!LO:LB:g=original	!	!	!	!	!
=23-	=23-	=23-	=23-	=23-	=23-
*	*	*	*	*lig	*
2C/	-e	2.c\	-e	1e\	e-
2C/	e-	.	.	.	.
.	.	4B\	.	.	.
1D\	-ley-	4A/	.	1d\	.
.	.	4G/	.	.	.
.	.	2A/	.	.	.
*	*	*	*	*Xlig	*
=24-	=24-	=24-	=24-	=24-	=24-
!LO:TX:t=P:problem:cezura pod 1. linią	!	!	!	!	!
*	*	*	*	*lig	*
2GG,/	-Son	2B\	.	1B\	.
*	*ij	*	*	*	*
2.G\	ky-	2.B\	e-	.	.
.	.	.	.	1d\	.
4G\	-ri-	4B\	-ley-	.	.
2F#X\	-e	2d\	.	.	.
!	!	!LO:SIC:v:custos:B	!	!	!
*	*	*	*	*Xlig	*
!	!	!LO:LB:g=original	!	!	!
=25-	=25-	=25-	=25-	=25-	=25-
*	*	*	*	*lig	*
2G\	.	2B\	.	1d\	.
2D/	.	2A/	.	.	.
4AA/	e-	1.A\	.	1c\	.
4BB/	.	.	.	.	.
4C/	.	.	.	.	.
4D/	.	.	.	.	.
*	*	*	*	*Xlig	*
=26-	=26-	=26-	=26-	=26-	=26-
*	*	*	*	*lig	*
2E\	.	.	.	1B\	.
!	!	!LO:TX:t=P:problem:# below	!	!	!
2E\	-ley-	2G#X/	.	.	.
!	!	!	!	!LO:SIC:v:custos:G	!
1AA/	-Son	1A\	-ſon	1A\	.
*	*	*	*	*Xlig	*
!	!	!	!	!LO:LB:g=original	!
=27-	=27-	=27-	=27-	=27-	=27-
2C/	ky-	2r	.	1G/	.
2E\	-ri-	2G/	Ky-	.	.
*	*	*	*	*lig	*
2G\	.	2.B\	-ri-	1G/	.
2E\	.	.	.	.	.
!	!	!LO:TX:t=P:problem:# above	!	!	!
.	.	4c#X\	.	.	.
=28-	=28-	=28-	=28-	=28-	=28-
2D/	-e	1.d\	-e	1A\	.
2D/	e-	.	.	.	.
*	*	*	*	*Xlig	*
*	*	*	*	*lig	*
2.BB/	.	.	.	1B\	.
.	.	2d\	e-	.	.
4C/	.	.	.	.	.
=29-	=29-	=29-	=29-	=29-	=29-
0D\	-ley-	2.d\	.	1A\	.
.	.	8c\L	.	.	.
.	.	8B\J	.	.	.
*	*	*	*	*Xlig	*
.	.	2A/	.	1A\	ley-
.	.	2d\	-ley-	.	.
=30-	=30-	=30-	=30-	=30-	=30-
!LO:TX:t=P:problem:fermata również u dołu:global	!	!LO:TX:t=P:problem:fermata również u dołu:global	!	!LO:TX:t=P:problem:fermata również u dołu:global	!
0GG/;	-Son	0B\;	-ſon	0G/;	-Son.
*	*Xij	*	*Xij	*	*
!LO:PB:g=original	!	!LO:PB:g=original	!	!LO:LB:g=original	!
=31||-	=31||-	=31||-	=31||-	=31||-	=31||-
*M3/1	*	*M3/1	*	*M3/1	*
!LO:TX:t=P:problem:Kyrie z innego cyklu?	!	!	!	!	!
*	*	*	*	*lig	*
!	!	!	!	!LO:N:vis=1	!
!	!	!	!	!LO:TX:t=P:problem:cała nuta w rpsie=brevis z kropką w edycji; brevis w rpsie=longa z kropką	!
0G\	Ky-	0d\	Ky-	0.B\	Ky-
1G\	-ri-	1d\	-ri-	.	.
=32-	=32-	=32-	=32-	=32-	=32-
!	!	!	!	!LO:N:vis=1	!
0F\	-e	0f\	-e	0.A\	.
1A\	.	1c\	e-	.	.
*	*	*	*	*Xlig	*
=33-	=33-	=33-	=33-	=33-	=33-
*	*	*	*	*lig	*
!	!	!	!	!LO:N:vis=1	!
0G\	e-	0d\	-ley-	0.B\	.
1G\	-ley-	1d\	.	.	.
=34-	=34-	=34-	=34-	=34-	=34-
!	!	!	!	!LO:N:vis=1	!
0.C/	-ſon	0.e\	-Son	0.c\	.
*	*	*	*	*Xlig	*
=35-	=35-	=35-	=35-	=35-	=35-
*	*ij	*	*	*lig	*
!	!	!	!	!LO:N:vis=1	!
0GG/	Ky-	0d\	ky-	0.B\	.
1GG/	-ri-	1d\	-ri-	.	.
=36-	=36-	=36-	=36-	=36-	=36-
!	!	!	!	!LO:N:vis=1	!
0D\	-e	0d\	-e	0.A\	.
1F\	e-	1c\	.	.	.
*	*	*	*	*Xlig	*
=37-	=37-	=37-	=37-	=37-	=37-
*col	*	*	*	*	*
!	!	!	!	!LO:N:vis=1	!
1D\	-ley-	0c\	e-	0.G/	-ri-
0GG/	.	.	.	.	.
.	.	1B\	-ley-	.	.
*Xcol	*	*	*	*	*
=38-	=38-	=38-	=38-	=38-	=38-
!LO:TX:t=P:problem:nuta wpisana jako longa	!	!	!	!	!
!LO:SIC:v:custos:G	!	!LO:SIC:v:custos:c	!	!LO:N:vis=0	!
00.C/	ſon	0.c\	-Son	00.G/	-e
*	*Xij	*	*	*	*
!	!	!LO:LB:g=original	!	!	!
=39-	=39-	=39-	=39-	=39-	=39-
*	*	*	*ij	*	*
.	.	1c\	ky-	.	.
.	.	1c\	-ri-	.	.
.	.	1c\	-e	.	.
!LO:LB:g=original	!	!	!	!	!
=40-	=40-	=40-	=40-	=40-	=40-
!	!	!	!	!LO:N:vis=1	!
1G\	ky-	1.B\	e-	0.B\	e-
1G\	-ri-	.	.	.	.
.	.	2c\	.	.	.
1G\	-e-	2d\	-ley-	.	.
.	.	2B\	.	.	.
=41-	=41-	=41-	=41-	=41-	=41-
!	!	!	!	!LO:N:vis=1	!
1.A\	.	0.A\	-Son	0.c\	.
2B\	.	.	.	.	.
2c\	.	.	.	.	.
2A\	.	.	.	.	.
=42-	=42-	=42-	=42-	=42-	=42-
*	*	*	*	*lig	*
!	!	!	!	!LO:N:vis=1	!
1B\	.	1G/	ky-	0.d\	.
1G\	.	1G/	-ri-	.	.
1B\	.	1G/	-e	.	.
=43-	=43-	=43-	=43-	=43-	=43-
!	!	!	!	!LO:N:vis=1	!
0A\	.	1.A\	e-	0.c\	.
.	.	2B\	.	.	.
1A\	-ley-	2c\	.	.	.
.	.	2A/	.	.	.
*	*	*	*	*Xlig	*
=44-	=44-	=44-	=44-	=44-	=44-
*	*	*	*	*lig	*
!	!	!	!	!LO:N:vis=1	!
0.G\	-son	2B\	.	0.d\	.
.	.	2A/	.	.	.
.	.	2B\	.	.	.
.	.	2c\	.	.	.
.	.	2d\	.	.	.
!	!	!LO:SIC:v:custos:e	!	!	!
!	!	!LO:TX:t=P:problem:dwie nuty skreślone	!	!	!
.	.	2B\	.	.	.
!	!	!LO:SIC:o:t:v=wymazane dwa dźwięki	!	!	!
!	!	!LO:LB:g=original	!	!	!
=45-	=45-	=45-	=45-	=45-	=45-
!	!	!	!	!LO:N:vis=1	!
1C/	ky-	2c\	.	0.e\	.
.	.	2d\	.	.	.
1C/	-ri-	2e\	.	.	.
.	.	2d\	.	.	.
1C/	-e	2c\	.	.	.
.	.	2B\	.	.	.
*	*	*	*	*Xlig	*
=46-	=46-	=46-	=46-	=46-	=46-
!	!	!	!	!LO:N:vis=1	!
!	!	!	!	!LO:SIC:v:custos:B	!
1.D\	e-	0A\	-ley-	0.d\	.
2E\	.	.	.	.	.
2F\	.	1A\	-Son	.	.
*	*	*	*Xij	*	*
!LO:SIC:v:custos:E	!	!	!	!	!
2D/	.	.	.	.	.
!LO:LB:g=original	!	!	!	!LO:PB:g=original	!
=47-	=47-	=47-	=47-	=47-	=47-
!	!	!	!	!LO:N:vis=1	!
0E\	.	1G/	ky-	0.B\	.
.	.	1G/	-ri-	.	.
1E\	-ley-	1G/	-e	.	.
=48-	=48-	=48-	=48-	=48-	=48-
!	!	!	!	!LO:N:vis=1	!
0.D\	-Son	1A\	e-	0.d\	.
.	.	2d\	.	.	.
.	.	2c\	.	.	.
.	.	2B\	.	.	.
.	.	2A/	.	.	.
=49-	=49-	=49-	=49-	=49-	=49-
*	*	*	*	*lig	*
!	!	!	!	!LO:N:vis=1	!
1G\	Ky-	2B\	.	0.d\	.
.	.	2c\	.	.	.
1G\	-ri-	2d\	.	.	.
.	.	2c\	.	.	.
!	!	!LO:SIC:v:custos:A	!	!	!
1G\	-e	1B\	.	.	.
!	!	!LO:LB:g=original	!	!	!
=50-	=50-	=50-	=50-	=50-	=50-
!	!	!	!	!LO:N:vis=1	!
1A\	e-	0A\	.	0.c\	.
2AA/	.	.	.	.	.
2BB/	.	.	.	.	.
2C/	.	1A\	.	.	.
2D/	.	.	.	.	.
*	*	*	*	*Xlig	*
=51-	=51-	=51-	=51-	=51-	=51-
*	*	*	*	*lig	*
!	!	!	!	!LO:N:vis=1	!
0E\	.	0A\	.	0.B\	.
1E\	-ley-	1G/	-ley-	.	.
=52-	=52-	=52-	=52-	=52-	=52-
!	!	!	!	!LO:N:vis=1	!
0.AA/	-son	0.A\	-Son	0.A\	.
*	*	*	*	*Xlig	*
=53-	=53-	=53-	=53-	=53-	=53-
*	*	*	*	*lig	*
!	!	!	!	!LO:N:vis=1	!
1C/	ky-	1c\	ky-	0.G/	.
1C/	-ri-	1c\	-ri-	.	.
!LO:SIC:v:custos:F	!	!	!	!	!
1C/	-e	1c\	-e	.	.
!LO:LB:g=original	!	!	!	!	!
=54-	=54-	=54-	=54-	=54-	=54-
!	!	!	!	!LO:N:vis=1	!
1.F\	e-	1.c\	.	0.A\	.
2G\	.	2B\	e-	.	.
1A\	.	1A\	.	.	.
*	*	*	*	*Xlig	*
=55-	=55-	=55-	=55-	=55-	=55-
*	*	*	*	*lig	*
!	!	!	!	!LO:N:vis=1	!
1G\	.	2d\	.	0.B\	.
.	.	2c\	.	.	.
2GG/	.	2B\	.	.	.
2AA/	.	2A/	.	.	.
2BB/	.	1G/	.	.	.
2C/	.	.	.	.	.
=56-	=56-	=56-	=56-	=56-	=56-
!	!	!	!	!LO:N:vis=1	!
0D\	.	0d\	.	0.A\	.
1C/	.	1e\	.	.	.
*	*	*	*	*Xlig	*
=57-	=57-	=57-	=57-	=57-	=57-
!	!	!	!	!LO:N:vis=1	!
0D\	.	0.d\	-ley-	0.A\	-ley-
1D\	-ley-	.	.	.	.
=58-	=58-	=58-	=58-	=58-	=58-
!LO:TX:t=P:problem:nuta wpisana jako longa	!	!LO:SIC:v:custos:d	!	!	!
00.GG/	-son	0.B\	-Son	[y00.G/;	-son.
!	!	!LO:LB:g=original	!	!	!
=59-	=59-	=59-	=59-	=59-	=59-
.	.	1d\	ky-	.	.
.	.	1B\	-ri-	.	.
.	.	2d\	-e-	.	.
.	.	2c\	.	.	.
=60-	=60-	=60-	=60-	=60-	=60-
1G\	ky-	2B\	.	00.G/_yy	.
.	.	2A/	.	.	.
1E\	-ri-	2G/	.	.	.
.	.	2A/	.	.	.
2G\	-e	1B\	.	.	.
2F\	.	.	.	.	.
=61-	=61-	=61-	=61-	=61-	=61-
2E\	.	0c\	.	.	.
2D/	.	.	.	.	.
2C/	.	.	.	.	.
2D/	.	.	.	.	.
2E\	.	1G/	-ley-	.	.
2D/	.	.	.	.	.
!LO:LB:g=original	!	!	!	!	!
=62-	=62-	=62-	=62-	=62-	=62-
0C/	e-	0.c\	-son	00.G/_yy	.
1C/	-ley-	.	.	.	.
=63-	=63-	=63-	=63-	=63-	=63-
!LO:TX:t=P:problem:cezura pod 1. linią	!	!	!	!	!
*	*	*	*ij	*	*
0GG/,	-son	1d\	ky-	.	.
.	.	1B\	-ri-	.	.
*	*ij	*	*	*	*
1G\	ky-	1d\	-e-	.	.
=64-	=64-	=64-	=64-	=64-	=64-
1E\	-ri-	1c\	.	00.G/_yy	.
1C/	-e	2e\	.	.	.
.	.	2d\	.	.	.
2E\	e-	2c\	.	.	.
!	!	!LO:SIC:v:custos:c	!	!	!
2D/	.	2B\	.	.	.
!	!	!LO:LB:g=original	!	!	!
=65-	=65-	=65-	=65-	=65-	=65-
0C/	-ley-	2c\	.	.	.
.	.	2d\	.	.	.
.	.	1e\	.	.	.
1BB/	-son	1d\	.	.	.
=66-	=66-	=66-	=66-	=66-	=66-
2C/	ky-	0c\	.	00.G/_yy	.
2D/	.	.	.	.	.
2E\	.	.	.	.	.
2F\	-ri-	.	.	.	.
1G\	-e	1B\	.	.	.
=67-	=67-	=67-	=67-	=67-	=67-
*	*	*col	*	*	*
1C/	e-	1e\	.	.	.
0GG/	-ley-	0d\	-ley-	.	.
*	*	*Xcol	*	*	*
=68-	=68-	=68-	=68-	=68-	=68-
*M2/1	*	*M2/1	*	*	*
*met(C|)	*	*met(C|)	*	*	*
!LO:SIC:v:custos:G	!	!	!	!	!
1C/	-son	1c\	-son	00.G/_yy	.
!LO:LB:g=original	!	!	!	!	!
2r	.	2r	.	.	.
2G\	ky-	2B\	ky-	.	.
=69-	=69-	=69-	=69-	=69-	=69-
2E\	-ri-	2c\	-ri-	.	.
4G\	-e	2B\	-e-	.	.
4F\	.	.	.	.	.
4E\	.	2.c\	.	.	.
4D/	.	.	.	.	.
1C/	.	.	.	.	.
.	.	4d\	.	.	.
=70-	=70-	=70-	=70-	=70-	=70-
.	.	2e\	.	.	.
2BB/	e-	2d\	.	.	.
1C/	-ley-	1.c\	.	.	.
=71-	=71-	=71-	=71-	=71-	=71-
0.GG/;	-son	.	.	0.G/]yy	.
.	.	4B\	-ley-	.	.
.	.	4A/	.	.	.
.	.	0B\;	-son	.	.
==	==	==	==	==	==
*-	*-	*-	*-	*-	*-
!!!system-decoration: [(s1,s2,s3)]
!!!EED: Leszek Kubiak
!!!EST: 2021-03-22
!!!ENC:Kamil Watkowski
!!!END:2021-03-08
